deploy-button/green/deploy-button.svg

<svg width="251" height="46" viewBox="0 0 251 46" fill="none"
    xmlns="http://www.w3.org/2000/svg">
    <g clip-path="url(#clip0_543_51)">
        <path d="M228.369 0H22.6311C10.1323 0 0 10.1323 0 22.6311C0 35.13 10.1323 45.2623 22.6311 45.2623H228.369C240.868 45.2623 251 35.13 251 22.6311C251 10.1323 240.868 0 228.369 0Z" fill="#7CC6BB"/>
        <path d="M56.7914 22.6289C56.7914 23.8419 56.5654 24.8561 56.1136 25.6714C55.6618 26.4817 55.0062 27.0932 54.1467 27.5057C53.2872 27.9134 52.2509 28.1172 51.0378 28.1172H48.0469V17.3467H51.362C52.4768 17.3467 53.4395 17.5481 54.2498 17.9509C55.0602 18.3487 55.6863 18.9405 56.1284 19.7262C56.5704 20.5071 56.7914 21.4747 56.7914 22.6289ZM54.9496 22.6804C54.9496 21.7964 54.8097 21.0695 54.5297 20.4998C54.2547 19.9301 53.8471 19.5077 53.3068 19.2327C52.7715 18.9527 52.1109 18.8128 51.3252 18.8128H49.8149V26.6364H51.0673C52.3688 26.6364 53.3413 26.3049 53.9846 25.6419C54.628 24.9789 54.9496 23.9917 54.9496 22.6804ZM62.184 19.8073C62.9109 19.8073 63.5346 19.9571 64.0552 20.2567C64.5758 20.5562 64.976 20.9811 65.2559 21.5312C65.536 22.0812 65.6759 22.7393 65.6759 23.5055V24.4337H60.2318C60.2514 25.2244 60.4626 25.8334 60.8653 26.2607C61.2729 26.688 61.8426 26.9016 62.5744 26.9016C63.095 26.9016 63.5616 26.8525 63.9741 26.7543C64.3916 26.6512 64.8214 26.5014 65.2633 26.3049V27.712C64.8557 27.9036 64.4407 28.0435 64.0184 28.1319C63.596 28.2203 63.0901 28.2645 62.5008 28.2645C61.7002 28.2645 60.9955 28.1098 60.3865 27.8004C59.7824 27.4861 59.3084 27.0195 58.9646 26.4007C58.6258 25.7819 58.4563 25.0133 58.4563 24.0949C58.4563 23.1813 58.611 22.4054 58.9205 21.7669C59.2298 21.1284 59.6645 20.6422 60.2244 20.3083C60.7842 19.9743 61.4375 19.8073 62.184 19.8073ZM62.184 21.1113C61.6388 21.1113 61.1968 21.2881 60.858 21.6417C60.524 21.9952 60.3275 22.5134 60.2686 23.1961H63.9815C63.9766 22.7884 63.9078 22.4275 63.7752 22.1131C63.6476 21.7988 63.4511 21.5533 63.1859 21.3765C62.9256 21.1997 62.5916 21.1113 62.184 21.1113ZM71.8127 19.8073C72.7803 19.8073 73.556 20.1609 74.1402 20.8681C74.73 21.5753 75.0242 22.6264 75.0242 24.0211C75.0242 24.9445 74.8871 25.7229 74.6121 26.3565C74.3419 26.9851 73.9613 27.4615 73.4702 27.7857C72.984 28.1049 72.4169 28.2645 71.7681 28.2645C71.3559 28.2645 70.9973 28.2105 70.6928 28.1024C70.3883 27.9944 70.1277 27.8545 69.9117 27.6825C69.6956 27.5057 69.5139 27.3142 69.3664 27.1079H69.2636C69.2883 27.3044 69.3102 27.5229 69.3301 27.7636C69.3541 27.9993 69.3664 28.2154 69.3664 28.4119V31.7343H67.6281V19.962H69.0428L69.2855 21.0892H69.3664C69.5187 20.8583 69.7032 20.6446 69.9192 20.4482C70.14 20.2518 70.4054 20.097 70.7147 19.9841C71.0295 19.8663 71.395 19.8073 71.8127 19.8073ZM71.3484 21.2217C70.8718 21.2217 70.4891 21.3175 70.199 21.5091C69.9144 21.6957 69.7059 21.9781 69.5729 22.3562C69.4453 22.7344 69.3767 23.2083 69.3664 23.7781V24.0211C69.3664 24.6253 69.4282 25.1385 69.5509 25.5609C69.6785 25.9783 69.8876 26.2976 70.1771 26.5185C70.4719 26.7346 70.8697 26.8427 71.3703 26.8427C71.7928 26.8427 72.1418 26.7273 72.4169 26.4964C72.6967 26.2656 72.9051 25.9366 73.043 25.5093C73.1801 25.082 73.2494 24.5786 73.2494 23.9991C73.2494 23.1199 73.0917 22.4373 72.7776 21.9511C72.4683 21.4649 71.9917 21.2217 71.3484 21.2217ZM78.7666 28.1172H77.0281V16.6543H78.7666V28.1172ZM88.4617 24.0211C88.4617 24.6989 88.3732 25.3006 88.1962 25.8261C88.02 26.3516 87.7621 26.7961 87.4227 27.1595C87.0839 27.518 86.6765 27.793 86.1999 27.9845C85.724 28.1712 85.1856 28.2645 84.5869 28.2645C84.0266 28.2645 83.5137 28.1712 83.0473 27.9845C82.5803 27.793 82.175 27.518 81.8314 27.1595C81.4926 26.7961 81.23 26.3516 81.0434 25.8261C80.8569 25.3006 80.7636 24.6989 80.7636 24.0211C80.7636 23.1224 80.9179 22.3612 81.2272 21.7375C81.542 21.1088 81.9885 20.63 82.568 20.3009C83.1474 19.9718 83.838 19.8073 84.6384 19.8073C85.39 19.8073 86.0525 19.9718 86.6272 20.3009C87.2018 20.63 87.651 21.1088 87.9754 21.7375C88.2998 22.3661 88.4617 23.1274 88.4617 24.0211ZM82.546 24.0211C82.546 24.6155 82.6173 25.1238 82.76 25.5461C82.9074 25.9685 83.133 26.2926 83.4375 26.5185C83.742 26.7396 84.135 26.85 84.6164 26.85C85.0978 26.85 85.4901 26.7396 85.7946 26.5185C86.0991 26.2926 86.3227 25.9685 86.4653 25.5461C86.608 25.1238 86.6793 24.6155 86.6793 24.0211C86.6793 23.4269 86.608 22.9235 86.4653 22.511C86.3227 22.0935 86.0991 21.7768 85.7946 21.5607C85.4901 21.3396 85.0951 21.2291 84.6089 21.2291C83.8915 21.2291 83.369 21.4698 83.0398 21.9511C82.7106 22.4324 82.546 23.1224 82.546 24.0211ZM89.2208 19.962H91.1067L92.7787 24.6179C92.8521 24.8291 92.9186 25.0378 92.9776 25.2441C93.0414 25.4455 93.0955 25.6443 93.1394 25.8408C93.1888 26.0372 93.2279 26.2337 93.2574 26.4301H93.302C93.3507 26.1747 93.4199 25.8899 93.5084 25.5756C93.6017 25.2564 93.7045 24.9372 93.8177 24.6179L95.4238 19.962H97.2871L93.7882 29.2369C93.5866 29.7673 93.3383 30.2192 93.0441 30.5925C92.754 30.9706 92.4104 31.2555 92.0127 31.447C91.6149 31.6435 91.1602 31.7417 90.65 31.7417C90.4038 31.7417 90.1905 31.727 90.0088 31.6975C89.8271 31.6729 89.6721 31.6459 89.5445 31.6164V30.2315C89.6481 30.256 89.7777 30.2781 89.9354 30.2978C90.0925 30.3174 90.2543 30.3273 90.4216 30.3273C90.7309 30.3273 90.9984 30.2658 91.224 30.1431C91.4503 30.0203 91.6417 29.8459 91.7987 29.62C91.9564 29.399 92.0861 29.1461 92.1896 28.8613L92.477 28.0951L89.2208 19.962ZM109.664 24.0211C109.664 24.6989 109.575 25.3006 109.398 25.8261C109.222 26.3516 108.964 26.7961 108.625 27.1595C108.286 27.518 107.878 27.793 107.402 27.9845C106.926 28.1712 106.388 28.2645 105.789 28.2645C105.229 28.2645 104.716 28.1712 104.249 27.9845C103.782 27.793 103.377 27.518 103.033 27.1595C102.695 26.7961 102.432 26.3516 102.245 25.8261C102.059 25.3006 101.966 24.6989 101.966 24.0211C101.966 23.1224 102.12 22.3612 102.429 21.7375C102.744 21.1088 103.19 20.63 103.77 20.3009C104.349 19.9718 105.04 19.8073 105.84 19.8073C106.592 19.8073 107.254 19.9718 107.829 20.3009C108.404 20.63 108.854 21.1088 109.177 21.7375C109.502 22.3661 109.664 23.1274 109.664 24.0211ZM103.748 24.0211C103.748 24.6155 103.819 25.1238 103.962 25.5461C104.109 25.9685 104.335 26.2926 104.639 26.5185C104.944 26.7396 105.337 26.85 105.818 26.85C106.3 26.85 106.692 26.7396 106.997 26.5185C107.301 26.2926 107.525 25.9685 107.667 25.5461C107.81 25.1238 107.881 24.6155 107.881 24.0211C107.881 23.4269 107.81 22.9235 107.667 22.511C107.525 22.0935 107.301 21.7768 106.997 21.5607C106.692 21.3396 106.297 21.2291 105.811 21.2291C105.093 21.2291 104.571 21.4698 104.242 21.9511C103.913 22.4324 103.748 23.1224 103.748 24.0211ZM115.904 19.8073C116.822 19.8073 117.536 20.0455 118.047 20.5219C118.563 20.9934 118.821 21.7522 118.821 22.7982V28.1172H117.089V23.1224C117.089 22.4889 116.96 22.0149 116.699 21.7006C116.439 21.3814 116.036 21.2217 115.491 21.2217C114.7 21.2217 114.15 21.4649 113.841 21.9511C113.536 22.4373 113.384 23.142 113.384 24.0654V28.1172H111.653V19.962H113.001L113.244 21.067H113.34C113.516 20.7822 113.735 20.5489 113.996 20.3672C114.26 20.1806 114.555 20.0406 114.88 19.9473C115.208 19.8539 115.55 19.8073 115.904 19.8073ZM132.14 28.1172H124.398V26.9016L129.879 18.8496H124.567V17.3467H131.993V18.5549L126.512 26.6143H132.14V28.1172ZM137.106 19.8073C137.833 19.8073 138.456 19.9571 138.976 20.2567C139.497 20.5562 139.897 20.9811 140.177 21.5312C140.457 22.0812 140.598 22.7393 140.598 23.5055V24.4337H135.153C135.173 25.2244 135.384 25.8334 135.787 26.2607C136.194 26.688 136.764 26.9016 137.496 26.9016C138.016 26.9016 138.483 26.8525 138.896 26.7543C139.313 26.6512 139.743 26.5014 140.185 26.3049V27.712C139.777 27.9036 139.362 28.0435 138.94 28.1319C138.518 28.2203 138.012 28.2645 137.422 28.2645C136.621 28.2645 135.917 28.1098 135.308 27.8004C134.704 27.4861 134.23 27.0195 133.886 26.4007C133.547 25.7819 133.378 25.0133 133.378 24.0949C133.378 23.1813 133.533 22.4054 133.842 21.7669C134.151 21.1284 134.586 20.6422 135.146 20.3083C135.706 19.9743 136.359 19.8073 137.106 19.8073ZM137.106 21.1113C136.56 21.1113 136.118 21.2881 135.779 21.6417C135.445 21.9952 135.249 22.5134 135.19 23.1961H138.903C138.898 22.7884 138.829 22.4275 138.697 22.1131C138.569 21.7988 138.372 21.5533 138.108 21.3765C137.847 21.1997 137.513 21.1113 137.106 21.1113ZM146.683 19.8073C146.82 19.8073 146.97 19.8147 147.132 19.8294C147.294 19.8441 147.434 19.8638 147.552 19.8884L147.39 21.5091C147.287 21.4796 147.159 21.4575 147.006 21.4428C146.859 21.428 146.727 21.4207 146.609 21.4207C146.299 21.4207 146.004 21.4722 145.725 21.5753C145.445 21.6736 145.197 21.8259 144.981 22.0321C144.765 22.2335 144.595 22.4864 144.472 22.7909C144.35 23.0954 144.288 23.449 144.288 23.8518V28.1172H142.549V19.962H143.905L144.141 21.3985H144.222C144.384 21.1088 144.586 20.8436 144.826 20.603C145.067 20.3623 145.342 20.1708 145.651 20.0283C145.965 19.8809 146.309 19.8073 146.683 19.8073ZM156.282 24.0211C156.282 24.6989 156.193 25.3006 156.016 25.8261C155.839 26.3516 155.582 26.7961 155.243 27.1595C154.904 27.518 154.497 27.793 154.02 27.9845C153.543 28.1712 153.006 28.2645 152.406 28.2645C151.847 28.2645 151.334 28.1712 150.867 27.9845C150.4 27.793 149.995 27.518 149.651 27.1595C149.313 26.7961 149.049 26.3516 148.863 25.8261C148.676 25.3006 148.583 24.6989 148.583 24.0211C148.583 23.1224 148.738 22.3612 149.047 21.7375C149.361 21.1088 149.809 20.63 150.388 20.3009C150.968 19.9718 151.657 19.8073 152.458 19.8073C153.209 19.8073 153.873 19.9718 154.447 20.3009C155.022 20.63 155.471 21.1088 155.795 21.7375C156.119 22.3661 156.282 23.1274 156.282 24.0211ZM150.366 24.0211C150.366 24.6155 150.437 25.1238 150.579 25.5461C150.727 25.9685 150.953 26.2926 151.258 26.5185C151.562 26.7396 151.954 26.85 152.436 26.85C152.917 26.85 153.31 26.7396 153.615 26.5185C153.919 26.2926 154.143 25.9685 154.285 25.5461C154.427 25.1238 154.499 24.6155 154.499 24.0211C154.499 23.4269 154.427 22.9235 154.285 22.511C154.143 22.0935 153.919 21.7768 153.615 21.5607C153.31 21.3396 152.915 21.2291 152.429 21.2291C151.712 21.2291 151.188 21.4698 150.859 21.9511C150.531 22.4324 150.366 23.1224 150.366 24.0211ZM162.455 19.8073C163.422 19.8073 164.199 20.1609 164.783 20.8681C165.373 21.5753 165.667 22.6264 165.667 24.0211C165.667 24.9445 165.53 25.7229 165.255 26.3565C164.984 26.9851 164.604 27.4615 164.113 27.7857C163.627 28.1049 163.059 28.2645 162.411 28.2645C161.998 28.2645 161.64 28.2105 161.335 28.1024C161.031 27.9944 160.77 27.8545 160.554 27.6825C160.338 27.5057 160.156 27.3142 160.009 27.1079H159.906C159.931 27.3044 159.953 27.5229 159.973 27.7636C159.997 27.9993 160.009 28.2154 160.009 28.4119V31.7343H158.271V19.962H159.685L159.928 21.0892H160.009C160.161 20.8583 160.346 20.6446 160.562 20.4482C160.783 20.2518 161.048 20.097 161.357 19.9841C161.671 19.8663 162.038 19.8073 162.455 19.8073ZM161.991 21.2217C161.514 21.2217 161.132 21.3175 160.842 21.5091C160.557 21.6957 160.348 21.9781 160.215 22.3562C160.088 22.7344 160.019 23.2083 160.009 23.7781V24.0211C160.009 24.6253 160.071 25.1385 160.193 25.5609C160.321 25.9783 160.53 26.2976 160.82 26.5185C161.114 26.7346 161.512 26.8427 162.013 26.8427C162.435 26.8427 162.784 26.7273 163.059 26.4964C163.339 26.2656 163.548 25.9366 163.686 25.5093C163.823 25.082 163.891 24.5786 163.891 23.9991C163.891 23.1199 163.734 22.4373 163.42 21.9511C163.111 21.4649 162.634 21.2217 161.991 21.2217ZM173.152 25.7893C173.152 26.3246 173.022 26.7764 172.761 27.1447C172.501 27.5131 172.12 27.793 171.619 27.9845C171.124 28.1712 170.515 28.2645 169.793 28.2645C169.223 28.2645 168.732 28.2228 168.319 28.1393C167.911 28.0607 167.526 27.9379 167.163 27.7709V26.2755C167.551 26.4571 167.985 26.6143 168.466 26.747C168.952 26.8795 169.412 26.9458 169.844 26.9458C170.414 26.9458 170.824 26.8574 171.074 26.6806C171.325 26.4989 171.45 26.2583 171.45 25.9586C171.45 25.7819 171.399 25.6247 171.295 25.4872C171.197 25.3448 171.01 25.1999 170.735 25.0525C170.465 24.9003 170.068 24.7186 169.542 24.5074C169.026 24.3011 168.592 24.0949 168.238 23.8886C167.885 23.6823 167.616 23.4342 167.435 23.1445C167.253 22.8498 167.163 22.4741 167.163 22.0174C167.163 21.2954 167.447 20.7478 168.017 20.3746C168.592 19.9964 169.35 19.8073 170.293 19.8073C170.794 19.8073 171.266 19.8589 171.708 19.962C172.155 20.0602 172.592 20.2051 173.019 20.3967L172.474 21.7006C172.106 21.5385 171.735 21.4059 171.362 21.3028C170.993 21.1947 170.618 21.1407 170.234 21.1407C169.788 21.1407 169.446 21.2095 169.21 21.347C168.98 21.4845 168.864 21.6809 168.864 21.9363C168.864 22.1279 168.921 22.2899 169.033 22.4226C169.146 22.5551 169.341 22.6878 169.616 22.8204C169.895 22.953 170.284 23.1175 170.779 23.314C171.266 23.5006 171.686 23.697 172.039 23.9033C172.398 24.1047 172.673 24.3527 172.864 24.6473C173.056 24.942 173.152 25.3226 173.152 25.7893Z" fill="#292929"/>
        <mask id="mask0_543_51" style="mask-type:luminance" maskUnits="userSpaceOnUse" x="187" y="15" width="18" height="17">
            <path d="M204.365 15.0879H187.906V31.5469H204.365V15.0879Z" fill="white"/>
        </mask>
        <g mask="url(#mask0_543_51)">
            <path d="M192.021 25.3747C191.451 25.3747 190.937 25.6079 190.567 25.9782C189.757 26.7874 189.277 30.1753 189.277 30.1753C189.277 30.1753 192.665 29.6952 193.474 28.886C193.845 28.5156 194.078 28.0013 194.078 27.4321C194.078 26.2937 193.159 25.3747 192.021 25.3747ZM192.507 27.919C192.315 28.111 191.019 28.4402 191.019 28.4402C191.019 28.4402 191.342 27.1509 191.54 26.952C191.657 26.8217 191.828 26.7463 192.021 26.7463C192.398 26.7463 192.706 27.0549 192.706 27.4321C192.706 27.6241 192.631 27.7956 192.507 27.919ZM199.852 24.4489C204.214 20.0873 202.76 16.6926 202.76 16.6926C202.76 16.6926 199.365 15.2387 195.004 19.6003L193.296 19.2574C192.85 19.1683 192.384 19.3123 192.055 19.6346L189.277 22.4189L192.706 23.8865L195.566 26.7463L197.034 30.1753L199.811 27.3978C200.133 27.0755 200.277 26.6091 200.188 26.1565L199.852 24.4489ZM192.987 22.515L191.678 21.9526L193.029 20.6016L194.016 20.8005C193.625 21.3697 193.276 21.9663 192.987 22.515ZM197.5 27.775L196.938 26.4651C197.486 26.1771 198.083 25.8273 198.645 25.4364L198.844 26.424L197.5 27.775ZM198.878 23.4819C197.973 24.3872 196.56 25.1278 196.108 25.3541L194.098 23.3448C194.318 22.899 195.059 21.4863 195.971 20.5742C199.18 17.3647 201.615 17.8379 201.615 17.8379C201.615 17.8379 202.088 20.2724 198.878 23.4819ZM198.193 22.6315C198.947 22.6315 199.564 22.0143 199.564 21.26C199.564 20.5056 198.947 19.8884 198.193 19.8884C197.438 19.8884 196.821 20.5056 196.821 21.26C196.821 22.0143 197.438 22.6315 198.193 22.6315Z" fill="#292929"/>
        </g>
    </g>
    <defs>
        <clipPath id="clip0_543_51">
            <rect width="251" height="45.2623" fill="white"/>
        </clipPath>
    </defs>
</svg>

<svg width="251" height="46" fill="none"
    xmlns="http://www.w3.org/2000/svg">
    <g clip-path="url(#a)">
        <path d="M228.369 0H22.631C10.132 0 0 10.132 0 22.631s10.132 22.631 22.631 22.631H228.37c12.499 0 22.631-10.132 22.631-22.63C251 10.131 240.868 0 228.369 0Z" fill="#7CC6BB"/>
        <path d="M56.791 22.629c0 1.213-.226 2.227-.677 3.042a4.344 4.344 0 0 1-1.967 1.835c-.86.407-1.896.611-3.11.611h-2.99v-10.77h3.315c1.115 0 2.078.201 2.888.604.81.398 1.436.99 1.878 1.775.442.781.663 1.749.663 2.903Zm-1.841.051c0-.884-.14-1.61-.42-2.18a2.687 2.687 0 0 0-1.223-1.267c-.535-.28-1.196-.42-1.982-.42h-1.51v7.823h1.252c1.302 0 2.274-.331 2.918-.994.643-.663.965-1.65.965-2.962Zm7.234-2.873c.727 0 1.35.15 1.871.45.52.3.921.724 1.2 1.274.281.55.42 1.208.42 1.975v.928h-5.443c.02.79.23 1.4.633 1.827.408.427.978.64 1.71.64.52 0 .987-.049 1.4-.147a7.76 7.76 0 0 0 1.288-.45v1.408a5.633 5.633 0 0 1-1.245.42 7.514 7.514 0 0 1-1.517.133c-.8 0-1.505-.155-2.114-.465a3.395 3.395 0 0 1-1.422-1.4c-.34-.618-.509-1.387-.509-2.305 0-.914.155-1.69.464-2.328.31-.639.744-1.125 1.304-1.459.56-.334 1.214-.5 1.96-.5Zm0 1.304c-.545 0-.987.177-1.326.53-.334.354-.53.872-.59 1.555h3.713a2.856 2.856 0 0 0-.206-1.083 1.57 1.57 0 0 0-.59-.736c-.26-.177-.593-.266-1.001-.266Zm9.629-1.304c.967 0 1.743.354 2.327 1.061.59.707.884 1.758.884 3.153 0 .924-.137 1.702-.412 2.335-.27.63-.65 1.105-1.142 1.43-.486.319-1.053.479-1.702.479-.412 0-.77-.055-1.075-.163a2.682 2.682 0 0 1-.781-.42 2.997 2.997 0 0 1-.546-.574h-.102c.024.196.046.415.066.656.024.235.036.451.036.648v3.322h-1.738V19.962h1.415l.242 1.127h.081c.153-.23.337-.444.553-.64.221-.197.486-.352.796-.465.314-.118.68-.177 1.098-.177Zm-.465 1.415c-.476 0-.859.095-1.149.287-.285.187-.493.47-.626.847-.128.378-.196.852-.207 1.422v.243c0 .604.062 1.117.185 1.54.127.417.337.737.626.957.295.217.693.325 1.193.325.423 0 .772-.116 1.047-.347.28-.23.488-.56.626-.987.137-.427.206-.93.206-1.51 0-.88-.157-1.562-.471-2.048-.31-.486-.786-.73-1.43-.73Zm7.419 6.895h-1.739V16.654h1.739v11.463Zm9.695-4.096c0 .678-.089 1.28-.266 1.805-.176.526-.434.97-.773 1.334a3.406 3.406 0 0 1-1.223.825 4.39 4.39 0 0 1-1.613.28c-.56 0-1.073-.094-1.54-.28a3.508 3.508 0 0 1-1.216-.825 3.782 3.782 0 0 1-.788-1.334c-.186-.525-.28-1.127-.28-1.805 0-.899.155-1.66.464-2.284a3.309 3.309 0 0 1 1.341-1.436c.58-.33 1.27-.494 2.07-.494.752 0 1.414.165 1.99.494.574.329 1.023.808 1.347 1.437.325.628.487 1.39.487 2.283Zm-5.916 0c0 .595.071 1.103.214 1.525.147.422.373.747.677.973.305.22.698.331 1.18.331.48 0 .873-.11 1.178-.332.304-.225.528-.55.67-.972.143-.422.214-.93.214-1.525 0-.594-.071-1.098-.214-1.51-.142-.418-.366-.734-.67-.95-.305-.221-.7-.332-1.186-.332-.718 0-1.24.24-1.57.722-.328.481-.493 1.171-.493 2.07Zm6.675-4.059h1.886l1.672 4.656c.073.211.14.42.199.626.063.201.118.4.161.597.05.196.089.393.118.59h.045c.049-.256.118-.541.206-.855.094-.32.197-.639.31-.958l1.606-4.656h1.863l-3.499 9.275c-.201.53-.45.982-.744 1.356-.29.378-.634.663-1.031.854a3.039 3.039 0 0 1-1.363.295 4.05 4.05 0 0 1-.641-.044 5.205 5.205 0 0 1-.465-.082v-1.384a3.922 3.922 0 0 0 .877.096c.31 0 .577-.062.803-.185a1.66 1.66 0 0 0 .575-.523 3.15 3.15 0 0 0 .39-.759l.288-.766-3.256-8.133Zm20.443 4.06c0 .677-.089 1.279-.266 1.804a3.6 3.6 0 0 1-.773 1.334 3.413 3.413 0 0 1-1.223.825c-.476.186-1.014.28-1.613.28-.56 0-1.073-.094-1.54-.28a3.512 3.512 0 0 1-1.216-.825 3.8 3.8 0 0 1-.788-1.334c-.186-.525-.279-1.127-.279-1.805 0-.899.154-1.66.463-2.284a3.307 3.307 0 0 1 1.341-1.436c.579-.33 1.27-.494 2.07-.494.752 0 1.414.165 1.989.494a3.4 3.4 0 0 1 1.348 1.437c.325.628.487 1.39.487 2.283Zm-5.916 0c0 .594.071 1.102.214 1.524.147.422.373.747.677.973.305.22.698.331 1.179.331.482 0 .874-.11 1.179-.332.304-.225.528-.55.67-.972.143-.422.214-.93.214-1.525 0-.594-.071-1.098-.214-1.51-.142-.418-.366-.734-.67-.95-.305-.221-.7-.332-1.186-.332-.718 0-1.24.24-1.569.722-.329.481-.494 1.171-.494 2.07Zm12.156-4.215c.918 0 1.632.239 2.143.715.516.471.774 1.23.774 2.276v5.32h-1.732v-4.996c0-.633-.129-1.107-.39-1.421-.26-.32-.663-.48-1.208-.48-.791 0-1.341.244-1.65.73-.305.486-.457 1.191-.457 2.114v4.052h-1.731v-8.155h1.348l.243 1.105h.096c.176-.285.395-.518.656-.7a2.91 2.91 0 0 1 .884-.42c.328-.093.67-.14 1.024-.14Zm16.236 8.31h-7.742v-1.215l5.481-8.052h-5.312v-1.503h7.426v1.208l-5.481 8.06h5.628v1.502Zm4.966-8.31c.727 0 1.35.15 1.87.45.521.3.921.724 1.201 1.274s.421 1.208.421 1.975v.928h-5.445c.02.79.231 1.4.634 1.827.407.427.977.64 1.709.64.52 0 .987-.049 1.4-.147a7.776 7.776 0 0 0 1.289-.45v1.408a5.646 5.646 0 0 1-1.245.42 7.51 7.51 0 0 1-1.518.133c-.801 0-1.505-.155-2.114-.465a3.397 3.397 0 0 1-1.422-1.4c-.339-.618-.508-1.387-.508-2.305 0-.914.155-1.69.464-2.328.309-.639.744-1.125 1.304-1.459.56-.334 1.213-.5 1.96-.5Zm0 1.304c-.546 0-.988.177-1.327.53-.334.354-.53.872-.589 1.555h3.713a2.87 2.87 0 0 0-.206-1.083 1.58 1.58 0 0 0-.589-.736c-.261-.177-.595-.266-1.002-.266Zm9.577-1.304a5 5 0 0 1 .869.081l-.162 1.621a2.179 2.179 0 0 0-.384-.066 3.993 3.993 0 0 0-.397-.022c-.31 0-.605.051-.884.154a2.09 2.09 0 0 0-1.253 1.216 2.839 2.839 0 0 0-.184 1.06v4.266h-1.739v-8.155h1.356l.236 1.436h.081c.162-.29.364-.554.604-.795.241-.24.516-.432.825-.575a2.398 2.398 0 0 1 1.032-.22Zm9.599 4.214c0 .678-.089 1.28-.266 1.805-.177.526-.434.97-.773 1.334a3.405 3.405 0 0 1-1.223.825 4.395 4.395 0 0 1-1.614.28 4.11 4.11 0 0 1-1.539-.28 3.512 3.512 0 0 1-1.216-.825 3.785 3.785 0 0 1-.788-1.334c-.187-.525-.28-1.127-.28-1.805 0-.899.155-1.66.464-2.284a3.307 3.307 0 0 1 1.341-1.436c.58-.33 1.269-.494 2.07-.494.751 0 1.415.165 1.989.494.575.329 1.024.808 1.348 1.437.324.628.487 1.39.487 2.283Zm-5.916 0c0 .595.071 1.103.213 1.525.148.422.374.747.679.973.304.22.696.331 1.178.331.481 0 .874-.11 1.179-.332.304-.225.528-.55.67-.972.142-.422.214-.93.214-1.525 0-.594-.072-1.098-.214-1.51-.142-.418-.366-.734-.67-.95-.305-.221-.7-.332-1.186-.332-.717 0-1.241.24-1.57.722-.328.481-.493 1.171-.493 2.07Zm12.089-4.214c.967 0 1.744.354 2.328 1.061.59.707.884 1.758.884 3.153 0 .924-.137 1.702-.412 2.335-.271.63-.651 1.105-1.142 1.43-.486.319-1.054.479-1.702.479a3.22 3.22 0 0 1-1.076-.163 2.687 2.687 0 0 1-.781-.42 2.983 2.983 0 0 1-.545-.574h-.103c.025.196.047.415.067.656.024.235.036.451.036.648v3.322h-1.738V19.962h1.414l.243 1.127h.081c.152-.23.337-.444.553-.64.221-.197.486-.352.795-.465a3.123 3.123 0 0 1 1.098-.177Zm-.464 1.415c-.477 0-.859.095-1.149.287-.285.187-.494.47-.627.847-.127.378-.196.852-.206 1.422v.243c0 .604.062 1.117.184 1.54.128.417.337.737.627.957.294.217.692.325 1.193.325.422 0 .771-.116 1.046-.347.28-.23.489-.56.627-.987.137-.427.205-.93.205-1.51 0-.88-.157-1.562-.471-2.048-.309-.486-.786-.73-1.429-.73Zm11.161 4.567c0 .536-.13.987-.391 1.356-.26.368-.641.648-1.142.84-.495.186-1.104.28-1.826.28-.57 0-1.061-.042-1.474-.126a5.03 5.03 0 0 1-1.156-.368v-1.495c.388.181.822.338 1.303.471a5.25 5.25 0 0 0 1.378.199c.57 0 .98-.089 1.23-.265a.849.849 0 0 0 .376-.722.76.76 0 0 0-.155-.472c-.098-.142-.285-.287-.56-.434a10.65 10.65 0 0 0-1.193-.546 9.954 9.954 0 0 1-1.304-.618c-.353-.207-.622-.455-.803-.744-.182-.295-.272-.67-.272-1.128 0-.722.284-1.27.854-1.642.575-.379 1.333-.568 2.276-.568.501 0 .973.052 1.415.155.447.098.884.243 1.311.435l-.545 1.304a8.133 8.133 0 0 0-1.112-.398 3.987 3.987 0 0 0-1.128-.162c-.446 0-.788.069-1.024.206-.23.137-.346.334-.346.59 0 .19.057.353.169.486.113.132.308.265.583.397.279.133.668.297 1.163.494.487.187.907.383 1.26.59.359.2.634.449.825.743.192.295.288.676.288 1.142Z" fill="#292929"/>
        <mask id="b" style="mask-type:luminance" maskUnits="userSpaceOnUse" x="187" y="15" width="18" height="17">
            <path d="M204.365 15.088h-16.459v16.459h16.459v-16.46Z" fill="#fff"/>
        </mask>
        <g mask="url(#b)">
            <path d="M192.021 25.375a2.05 2.05 0 0 0-1.454.603c-.81.81-1.29 4.197-1.29 4.197s3.388-.48 4.197-1.289a2.055 2.055 0 0 0-1.453-3.511Zm.486 2.544c-.192.192-1.488.521-1.488.521s.323-1.29.521-1.488a.637.637 0 0 1 .481-.206.687.687 0 0 1 .486 1.173Zm7.345-3.47c4.362-4.362 2.908-7.756 2.908-7.756s-3.395-1.454-7.756 2.907l-1.708-.343a1.391 1.391 0 0 0-1.241.378l-2.778 2.784 3.429 1.468 2.86 2.86 1.468 3.428 2.777-2.777c.322-.322.466-.789.377-1.241l-.336-1.708Zm-6.865-1.934-1.309-.562 1.351-1.351.987.198c-.391.57-.74 1.166-1.029 1.715Zm4.513 5.26-.562-1.31a16.37 16.37 0 0 0 1.707-1.029l.199.988-1.344 1.351Zm1.378-4.293c-.905.905-2.318 1.646-2.77 1.872l-2.01-2.01c.22-.445.961-1.858 1.873-2.77 3.209-3.21 5.644-2.736 5.644-2.736s.473 2.434-2.737 5.644Zm-.685-.85c.754 0 1.371-.618 1.371-1.372 0-.754-.617-1.372-1.371-1.372-.755 0-1.372.618-1.372 1.372 0 .754.617 1.371 1.372 1.371Z" fill="#292929"/>
        </g>
    </g>
    <defs>
        <clipPath id="a">
            <path fill="#fff" d="M0 0h251v45.262H0z"/>
        </clipPath>
    </defs>
</svg>
